X: 1668
T: Anniversary, The
R: reel
M: 4/4
K: Dmajor
|:DAAG AB=cA|FGAD G3 A|FDEF GA B/c/d|ecAB cdef|
d3 B cAAD|B2 AG Ad D2|BAAG FAdf|1 g2 ec dBAF:|2 g2 ec dAde||
|:f/g/a da bdfg|afed cefg|f/g/a dA Bdef|g3 b agfg|
adda bdfg|afed A3G|F/G/A dA f3 d|1 gfec dAeg:|2 gfec dBAF||

